X: 11
T: Jenny Dang The Weaver
R: reel
M: 4/4
L: 1/8
K: Emaj
eBBB BGBc|eBBB fgfg|eccc cBce|Bcef g2 fg:|
|:e2 ge fgaf|efge f2 ec|effe fgaf|bBBB fgfg:|


Tune 380	Setting 380

